X:1
T:Minuet in G
C:Christian Petzold
M:3/4
L:1/4
Q:1/4=120
K:G
G A B | c d e | d B G | A2 G | A B c | d e ^f | g2 d | g3 | g2 a | b c' d' | c' B A | G2 G |]
